X: 24957
T: Maid In The Meadow, The
R: jig
M: 6/8
K: Amajor
B|:c3 BcB|BAF EFA|BAB ~c2B|BAF ~d3|
~c3 ~B3|BAF EFA|BAB cAG|1 ABc d3:|2 AcB Ace||
|:aee fee|aec Ace|aee fec|~B3 Ace|
aee fee|aec ABc|~B3 BAG|1 AcB Ace:|2 ABc d3||

